packages/icons/src/lib/svgs/chevron-up.svg

<svg
        aria-hidden="true"
        data-testid="test-icon"
        fill="none"
        
        viewBox="0 0 24 24"
        
        xmlns="http://www.w3.org/2000/svg"
        
    >
        <title>chevron up icon</title>
        <path
            d="M12.2652 9.11811C12.1092 8.96063 11.8908 8.96063 11.7348 9.11811L7.117 13.748C6.961 13.874 6.961 14.126 7.117 14.2835L7.74103 14.8819C7.86583 15.0394 8.11544 15.0394 8.27145 14.8819L11.9844 11.1654L15.7285 14.8819C15.8846 15.0394 16.103 15.0394 16.259 14.8819L16.883 14.2835C17.039 14.126 17.039 13.874 16.883 13.748L12.2652 9.11811Z"
            fill="currentColor"
        />
    </svg>

<svg aria-hidden="true" data-testid="test-icon" fill="currentColor" viewBox="0 0 24 24" xmlns="http://www.w3.org/2000/svg"><path d="M12.265 9.118a.357.357 0 00-.53 0l-4.618 4.63c-.156.126-.156.378 0 .536l.624.598c.125.157.374.157.53 0l3.713-3.717 3.745 3.717a.357.357 0 00.53 0l.624-.598c.156-.158.156-.41 0-.536l-4.618-4.63z"/></svg>
